images/logos/hitachi.svg

<svg xmlns="http://www.w3.org/2000/svg" width="64" height="64"><path d="M38.3 6.535c9.465 2.254 17.127 9.915 19.38 19.38.9 3.155 3.155 5.86 6.3 6.3-3.606.45-5.86 2.704-6.3 5.86-2.254 9.465-9.915 17.127-19.38 19.38-3.155.9-5.86 3.155-6.3 6.3-.45-3.606-2.704-5.86-6.3-6.3C16.225 55.21 8.563 47.55 6.3 38.085c-.9-3.155-3.155-5.86-6.3-5.86 3.606-.45 5.86-2.704 6.3-6.3C9.014 16.45 16.676 8.79 26.14 6.535c3.155-.9 5.86-3.155 5.86-6.3.45 3.155 3.155 5.408 6.3 6.3zm-5.86 36.507c5.86 0 10.366-4.507 10.366-10.366S38.3 22.3 32.45 22.3s-10.366 4.507-10.366 10.366c-.45 5.408 4.507 10.366 10.366 10.366zM18.48 16.45h11.268v-4.958c-4.507.45-8.113 2.254-11.268 4.958zm16.676 0h11.268c-3.155-2.704-7.21-4.507-11.268-4.958zM32.45 53.408c6.3 0 10.366-1.803 13.972-5.408H18.48c3.606 3.606 8.563 5.408 13.972 5.408zm0-15.775c3.155 0 5.408-2.254 5.408-5.408s-2.254-5.408-5.408-5.408c-2.704 0-5.408 2.254-5.408 5.408s2.254 5.408 5.408 5.408zm-11.718 5.408c-2.704-3.155-4.056-6.76-4.056-10.817s1.352-7.662 4.056-10.366h-6.76c-1.803 3.155-2.704 6.76-2.704 10.366 0 4.056.9 7.21 2.704 10.366h6.76zm29.746 0c1.803-3.155 2.704-6.76 2.704-10.366 0-4.056-.9-7.662-2.704-10.366h-6.3c2.704 2.704 4.056 6.3 4.056 10.366s-1.352 7.662-4.056 10.366zM32.45 32.225" fill="#151515"/></svg>

<?xml version="1.0" encoding="UTF-8" standalone="no"?>
<!DOCTYPE svg PUBLIC "-//W3C//DTD SVG 1.1//EN" "http://www.w3.org/Graphics/SVG/1.1/DTD/svg11.dtd">
<svg width="100%" height="100%" viewBox="0 0 64 64" version="1.1" xmlns="http://www.w3.org/2000/svg" xmlns:xlink="http://www.w3.org/1999/xlink" xml:space="preserve" xmlns:serif="http://www.serif.com/" style="fill-rule:evenodd;clip-rule:evenodd;stroke-linejoin:round;stroke-miterlimit:2;">
    <g id="Layer1">
        <circle cx="32" cy="32" r="32" style="fill:white;"/>
    </g>
    <path d="M38.3,6.535C47.765,8.789 55.427,16.45 57.68,25.915C58.58,29.07 60.835,31.775 63.98,32.215C60.374,32.665 58.12,34.919 57.68,38.075C55.426,47.54 47.765,55.202 38.3,57.455C35.145,58.355 32.44,60.61 32,63.755C31.55,60.149 29.296,57.895 25.7,57.455C16.225,55.21 8.563,47.55 6.3,38.085C5.4,34.93 3.145,32.225 0,32.225C3.606,31.775 5.86,29.521 6.3,25.925C9.014,16.45 16.676,8.79 26.14,6.535C29.295,5.635 32,3.38 32,0.235C32.45,3.39 35.155,5.643 38.3,6.535ZM32.44,43.042C38.3,43.042 42.806,38.535 42.806,32.676C42.806,26.817 38.3,22.3 32.45,22.3C26.6,22.3 22.084,26.807 22.084,32.666C21.634,38.074 26.591,43.032 32.45,43.032L32.44,43.042ZM18.48,16.45L29.748,16.45L29.748,11.492C25.241,11.942 21.635,13.746 18.48,16.45ZM35.156,16.45L46.424,16.45C43.269,13.746 39.214,11.943 35.156,11.492L35.156,16.45ZM32.45,53.408C38.75,53.408 42.816,51.605 46.422,48L18.48,48C22.086,51.606 27.043,53.408 32.452,53.408L32.45,53.408ZM32.45,37.633C35.605,37.633 37.858,35.379 37.858,32.225C37.858,29.071 35.604,26.817 32.45,26.817C29.746,26.817 27.042,29.071 27.042,32.225C27.042,35.379 29.296,37.633 32.45,37.633ZM20.732,43.041C18.028,39.886 16.676,36.281 16.676,32.224C16.676,28.167 18.028,24.562 20.732,21.858L13.972,21.858C12.169,25.013 11.268,28.618 11.268,32.224C11.268,36.28 12.168,39.434 13.972,42.59L20.732,42.59L20.732,43.041ZM50.478,43.041C52.281,39.886 53.182,36.281 53.182,32.675C53.182,28.619 52.282,25.013 50.478,22.309L44.178,22.309C46.882,25.013 48.234,28.609 48.234,32.675C48.234,36.741 46.882,40.337 44.178,43.041L50.478,43.041Z" style="fill:rgb(21,21,21);fill-rule:nonzero;"/>
</svg>
